X: 78
T: Pollonesse #78
M: 3/4
L: 1/16
K: F
Q:120
dcBA G2G,2 B,2D2|GFGA BABc d4|B2Bd A2Ac G2GB|Bcdc B4 A4|
{c}dcBA G2G,2 B,2D2|GFGA BABc d4|_edcB dcBA cBAG|BAGF G4 G,4:|
d2d_e f2fe d2dc| B2Bd c2c_e d4|d2bd c2ac B2gB|B2AG FGAF D4|
{c}dcBA G2G,2 B,2D2|GFGA BABc d4|_edcB dcBA cBAG|BAGF G4 G,4:|
N: Jämför nr. 112

